X:1
T:Title
L:1/8
M:4/4
K:Eb
V:1 treble nm="Grand Piano"
V:1
 z4 z[Q:1/4=100] BBA | G2 G2 EE F2 | G4- GFFG | A2 A2 B2 AB | G4- GBBA | G2 G2 EE F2 | G4- GFFG | %7
 A2 A2 B2 AB |[M:5/8] G- G3 z |[M:3/8] ccB |[M:4/4] cBAG FFBA | G4- GccB | c2 cB- BB dc/B/ | %13
 cB/A/ BA GccB | cBAG FFBA | G4- GccB | c2 cB- BB dc/B/ |[M:3/4] c3 B dc/B/ |[M:4/4] c3 B dccB | %19
 cBAG- GBBA | G2 G2 E2 BA | G6 z2 |] %22

